ametion_vv-test/img/icons/social/instangram.svg

<svg width="57" height="56" viewBox="0 0 57 56" fill="none" xmlns="http://www.w3.org/2000/svg">
<rect x="0.00378418" y="0.000610352" width="55.9994" height="55.9994" rx="13.3311" fill="#F9F9F9"/>
<path fill-rule="evenodd" clip-rule="evenodd" d="M18.2036 23.6447C18.2036 20.6381 20.6417 18.2 23.6482 18.2H32.3598C35.3663 18.2 37.8044 20.6381 37.8044 23.6447V32.3562C37.8044 35.3628 35.3663 37.8009 32.3598 37.8009H23.6482C20.6417 37.8009 18.2036 35.3628 18.2036 32.3562V23.6447ZM35.6175 21.4667C35.6175 20.8656 35.1297 20.3778 34.5286 20.3778C33.9275 20.3778 33.4396 20.8656 33.4396 21.4667C33.4396 22.0678 33.9275 22.5556 34.5286 22.5556C35.1297 22.5556 35.6175 22.0678 35.6175 21.4667ZM28.0072 22.5558C31.0137 22.5558 33.4518 24.9939 33.4518 28.0005C33.4518 31.0071 31.0137 33.4452 28.0072 33.4452C25.0006 33.4452 22.5625 31.0071 22.5625 28.0005C22.5625 24.9939 25.0006 22.5558 28.0072 22.5558ZM24.735 27.9993C24.735 26.1951 26.1976 24.7325 28.0019 24.7325C29.8061 24.7325 31.2687 26.1951 31.2687 27.9993C31.2687 29.8035 29.8061 31.2661 28.0019 31.2661C26.1976 31.2661 24.735 29.8035 24.735 27.9993Z" fill="#36BA5F"/>
</svg>

<svg width="57" height="56" fill="none" xmlns="http://www.w3.org/2000/svg"><rect x=".004" y=".001" width="55.999" height="55.999" rx="13.331" fill="#F9F9F9"/><path fill-rule="evenodd" clip-rule="evenodd" d="M18.204 23.645a5.445 5.445 0 015.444-5.445h8.712a5.445 5.445 0 015.444 5.445v8.711a5.445 5.445 0 01-5.444 5.445h-8.712a5.445 5.445 0 01-5.444-5.445v-8.711zm17.413-2.178a1.09 1.09 0 10-2.178 0 1.09 1.09 0 002.178 0zm-7.61 1.089a5.445 5.445 0 11-.001 10.89 5.445 5.445 0 01.001-10.89zm-3.272 5.443a3.267 3.267 0 116.534 0 3.267 3.267 0 01-6.534 0z" fill="#36BA5F"/></svg>
